X:3
T:Bluebird Blues
C:Hugh Farr
N:Transcribed by Jim Nikora
L:1/8
Q:1/4=200
M:4/4
K:C
z8 | 
K:D
"D"^ga =f^f AB d=f | "G7"ed BD =F^F A,B, | "D"DF AB d=f ^fb | bf za af ed | "G7"=fe df ed zB | 
d=f zf ed BD | "D"=F6 ^F2 | A,3B, DF Ad | "A7"cd fg ^ga zA | =fe dB =F^F A,B, | 
"D"DF A2 BA zF | d8 | [a8f8] | "G7"A[af] zA =f2 e2 | "D"Ad zA =c2 B2 | B2 AF =F3D | 
"G7"=F2 DB, D2 ^FD | E^D =Dd d=f ^fa | "D"AB de =f^f AB | de fb b4 | "A7"a2 fg ec B^A | 
AF EA A,B, z2 | "D"D8 | D8 | 


